X: 13690
T: For Denis Moynihan
R: hornpipe
M: 4/4
K: Fmajor
(3cde|:f2 A2 c2 dc|B2 E2 G2 ga|ba gf ed cB|(3ABc (3=Bcd c2 (3cde|
f2 A2 c2 dc|B2 E2 G2 GF|Ec DB CA B,G|1 ~F2 (3GFE FA (3cde:|2 ~F2 (3GFE F2 GF||
[K:Cmaj]
~E2 Gc ee dc|B2 Ba g2 g2|~B2 Ba g2 ^fg|a2 g2 ec GF|
EG FA Gc (3Bcd|cB ca g2 ^fg|ba ge fd BG|FG EF ~D2 GF|
~E2 Gc ee dc|B2 ^AB a2 gB|GB fa g2 ^fg|a2 g2 ec GF|
(3EFG (3FGA Gc Bd|c2 a2 g2 ^fg|ba ge f2 ed|~c2 ~c2 c2||

